resources/svg/chat-history-fill.svg

<svg fill="currentColor" viewBox="0 0 24 24" xmlns="http://www.w3.org/2000/svg"><path d="M12 2C17.5228 2 22 6.47715 22 12C22 17.5228 17.5228 22 12 22C10.298 22 8.69525 21.5748 7.29229 20.8248L2 22L3.17629 16.7097C2.42562 15.3063 2 13.7028 2 12C2 6.47715 6.47715 2 12 2ZM13 7H11V14H17V12H13V7Z"/></svg>

<svg xmlns="http://www.w3.org/2000/svg" viewBox="0 0 24 24" fill="currentColor">
    <g>
        <path fill="none" d="M0 0L24 0 24 24 0 24z"/>
        <path d="M12 2c5.523 0 10 4.477 10 10s-4.477 10-10 10c-1.702 0-3.305-.425-4.708-1.175L2 22l1.176-5.29C2.426 15.306 2 13.703 2 12 2 6.477 6.477 2 12 2zm1 5h-2v7h6v-2h-4V7z"/>
    </g>
</svg>
